assets/images/logo3.svg

<svg fill="none" height="18" viewBox="0 0 117 18" width="117" xmlns="http://www.w3.org/2000/svg"><path d="m0 16.8604v-16.8604h1.66812v16.8604zm10.83-12.33218c1.4298 0 2.566.44949 3.4077 1.34884.8422.88304 1.263 2.07957 1.263 3.58885v7.39449h-1.5728v-7.39449c0-1.07573-.2859-1.91096-.8579-2.50497-.5558-.594-1.3502-.89119-2.383-.89119-1.19152 0-2.13667.37722-2.83582 1.13205-.68301.75483-1.0247 1.87058-1.0247 3.348v6.3106h-1.57281v-12.04314h1.57281v1.87873c.88979-1.44518 2.22429-2.16777 4.00352-2.16777zm12.0043 10.67028 4.1703-10.38124h1.6681l-4.8852 12.04314h-1.9065l-4.8852-12.04314h1.6681zm12.7785-10.67028c1.7796 0 3.2014.6344 4.2657 1.90282 1.0962 1.25249 1.6443 2.73769 1.6443 4.45596 0 .0804-.0158.3291-.0477.7467h-10.4615c.1591 1.2043.6672 2.1677 1.5251 2.8903s1.9303 1.0839 3.2171 1.0839c1.8111 0 3.0903-.6825 3.8367-2.0473l1.3822.8189c-.5243.8671-1.2469 1.5497-2.1686 2.0474-.9056.4817-1.9303.7225-3.0741.7225-1.8746 0-3.3997-.594-4.5754-1.7823-1.1754-1.1884-1.7635-2.6977-1.7635-4.5283 0-1.81459.58-3.31572 1.7396-4.5041 1.16-1.20432 2.6533-1.80648 4.4801-1.80648zm0 1.54153c-1.2391 0-2.2796.36944-3.1217 1.10796-.826.73853-1.3184 1.71013-1.4775 2.91449h8.8887c-.1745-1.28477-.6592-2.2723-1.4537-2.96265-.826-.70666-1.7711-1.0598-2.8358-1.0598zm9.1857 1.90281c0 .93122.8183 1.61378 2.4546 2.04734.4608.1123.7625.1927.9055.2409.143.0322.4209.1204.8341.2649.4289.1286.7229.2409.8817.3372.1749.0964.4132.249.7149.4577.3017.1927.5162.3935.6434.6021.1272.1927.2464.4495.3575.7708.1111.3049.1668.6344.1668.9875 0 1.0276-.4051 1.8628-1.2154 2.505-.7783.6422-1.8111.9634-3.0979.9634-1.112 0-2.0733-.249-2.8835-.7466-.8102-.514-1.3821-1.1884-1.7158-2.0233l1.3345-.7948c.2226.6262.6196 1.1239 1.1916 1.4933.5876.3532 1.2787.5299 2.0732.5299.8102 0 1.4694-.1604 1.9779-.4817s.7626-.803.7626-1.4452c0-.9312-.8183-1.6138-2.4545-2.0473-.4609-.1123-.7626-.1846-.9056-.2168-.143-.0482-.4289-.1364-.8579-.2649-.4132-.1446-.7068-.265-.8817-.3613-.1588-.0964-.3894-.2409-.6911-.4336-.3017-.2086-.5162-.40946-.6434-.60215-.1272-.20863-.2464-.46579-.3575-.77076-.1111-.32128-.1668-.65848-.1668-1.01163 0-.97938.3813-1.79832 1.1439-2.4568.7945-.65848 1.7715-.98754 2.9311-.98754.9532 0 1.7953.21678 2.526.65034.7468.43355 1.2949 1.03571 1.6443 1.80647l-1.3106.77075c-.4448-1.1239-1.398-1.68603-2.8597-1.68603-.7149 0-1.3107.1686-1.7873.50581s-.7149.803-.7149 1.397zm15.4318-3.1553v1.54152h-3.4315v7.29812c0 .6585.1272 1.1321.3812 1.4211.2541.2731.6354.4176 1.1439.4336.5085 0 1.1439-.016 1.9064-.0482v1.397c-1.7.2568-2.963.1364-3.789-.3613-.8102-.514-1.2153-1.4611-1.2153-2.8422v-7.29812h-2.5022v-1.54152h2.5022v-2.89036l1.5728-.48172v3.37208zm15.323-.28904c1.3502 0 2.4307.43356 3.2409 1.30066.8102.86711 1.2153 2.03919 1.2153 3.5166v7.51492h-1.5728v-7.51492c0-1.02756-.2621-1.83056-.7864-2.40863-.5242-.57807-1.2311-.8671-2.1209-.8671-1.0327 0-1.843.34536-2.4307 1.03571s-.8817 1.71827-.8817 3.08304v6.6719h-1.5728v-7.51492c0-1.04386-.2464-1.84649-.7387-2.40863-.4924-.57807-1.1758-.8671-2.0495-.8671-1.0008 0-1.8268.35314-2.4783 1.0598-.6354.70665-.9532 1.72605-.9532 3.05895v6.6719h-1.5728v-12.04314h1.5728v1.7583c.8579-1.36477 2.0732-2.04734 3.646-2.04734 1.7316 0 2.9392.73074 3.6222 2.19185.8579-1.46111 2.1448-2.19185 3.8606-2.19185zm13.0033 0c1.7792 0 3.2009.6344 4.2656 1.90282 1.0962 1.25249 1.6443 2.73769 1.6443 4.45596 0 .0804-.0161.3291-.0477.7467h-10.4615c.1588 1.2043.6673 2.1677 1.5252 2.8903.8578.7226 1.9302 1.0839 3.2171 1.0839 1.8111 0 3.0899-.6825 3.8367-2.0473l1.3821.8189c-.5243.8671-1.2472 1.5497-2.1686 2.0474-.9055.4817-1.9302.7225-3.0741.7225-1.8749 0-3.4-.594-4.5754-1.7823-1.1757-1.1884-1.7634-2.6977-1.7634-4.5283 0-1.81459.5796-3.31572 1.7396-4.5041 1.1596-1.20432 2.6528-1.80648 4.4801-1.80648zm0 1.54153c-1.2392 0-2.28.36944-3.1218 1.10796-.8264.73853-1.3187 1.71013-1.4775 2.91449h8.8887c-.1748-1.28477-.6595-2.2723-1.4536-2.96265-.8264-.70666-1.7715-1.0598-2.8358-1.0598zm13.9884-1.54153c1.429 0 2.565.44949 3.407 1.34884.842.88304 1.263 2.07957 1.263 3.58885v7.39449h-1.572v-7.39449c0-1.07573-.286-1.91096-.858-2.50497-.556-.594-1.351-.89119-2.383-.89119-1.192 0-2.137.37722-2.8362 1.13205-.6834.75483-1.0247 1.87058-1.0247 3.348v6.3106h-1.5728v-12.04314h1.5728v1.87873c.8895-1.44518 2.2239-2.16777 4.0039-2.16777zm14.027.28904v1.54152h-3.432v7.29812c0 .6585.127 1.1321.381 1.4211.254.2731.636.4176 1.144.4336.508 0 1.144-.016 1.907-.0482v1.397c-1.7.2568-2.963.1364-3.789-.3613-.811-.514-1.216-1.4611-1.216-2.8422v-7.29812h-2.502v-1.54152h2.502v-2.89036l1.573-.48172v3.37208z" fill="#fff"/></svg>

<svg width="117" height="18" viewBox="0 0 117 18" fill="none" xmlns="http://www.w3.org/2000/svg">
<path d="M0 16.8604V0H1.66812V16.8604H0ZM10.83 4.52822C12.2598 4.52822 13.396 4.97771 14.2377 5.87706C15.0799 6.7601 15.5007 7.95663 15.5007 9.46591V16.8604H13.9279V9.46591C13.9279 8.39018 13.642 7.55495 13.07 6.96094C12.5142 6.36694 11.7198 6.06975 10.687 6.06975C9.49548 6.06975 8.55033 6.44697 7.85118 7.2018C7.16817 7.95663 6.82648 9.07238 6.82648 10.5498V16.8604H5.25367V4.81726H6.82648V6.69599C7.71627 5.25081 9.05077 4.52822 10.83 4.52822ZM22.8343 15.1985L27.0046 4.81726H28.6727L23.7875 16.8604H21.881L16.9958 4.81726H18.6639L22.8343 15.1985ZM35.6128 4.52822C37.3924 4.52822 38.8142 5.16262 39.8785 6.43104C40.9747 7.68353 41.5228 9.16873 41.5228 10.887C41.5228 10.9674 41.507 11.2161 41.4751 11.6337H31.0136C31.1727 12.838 31.6808 13.8014 32.5387 14.524C33.3966 15.2466 34.469 15.6079 35.7558 15.6079C37.5669 15.6079 38.8461 14.9254 39.5925 13.5606L40.9747 14.3795C40.4504 15.2466 39.7278 15.9292 38.8061 16.4269C37.9005 16.9086 36.8758 17.1494 35.732 17.1494C33.8574 17.1494 32.3323 16.5554 31.1566 15.3671C29.9812 14.1787 29.3931 12.6694 29.3931 10.8388C29.3931 9.02421 29.9731 7.52308 31.1327 6.3347C32.2927 5.13038 33.786 4.52822 35.6128 4.52822ZM35.6128 6.06975C34.3737 6.06975 33.3332 6.43919 32.4911 7.17771C31.6651 7.91624 31.1727 8.88784 31.0136 10.0922H39.9023C39.7278 8.80743 39.2431 7.8199 38.4486 7.12955C37.6226 6.42289 36.6775 6.06975 35.6128 6.06975ZM44.7985 7.97256C44.7985 8.90378 45.6168 9.58634 47.2531 10.0199C47.7139 10.1322 48.0156 10.2126 48.1586 10.2608C48.3016 10.293 48.5795 10.3812 48.9927 10.5257C49.4216 10.6543 49.7156 10.7666 49.8744 10.8629C50.0493 10.9593 50.2876 11.1119 50.5893 11.3206C50.891 11.5133 51.1055 11.7141 51.2327 11.9227C51.3599 12.1154 51.4791 12.3722 51.5902 12.6935C51.7013 12.9984 51.757 13.3279 51.757 13.681C51.757 14.7086 51.3519 15.5438 50.5416 16.186C49.7633 16.8282 48.7305 17.1494 47.4437 17.1494C46.3317 17.1494 45.3704 16.9004 44.5602 16.4028C43.75 15.8888 43.1781 15.2144 42.8444 14.3795L44.1789 13.5847C44.4015 14.2109 44.7985 14.7086 45.3705 15.078C45.9581 15.4312 46.6492 15.6079 47.4437 15.6079C48.2539 15.6079 48.9131 15.4475 49.4216 15.1262C49.9301 14.8049 50.1842 14.3232 50.1842 13.681C50.1842 12.7498 49.3659 12.0672 47.7297 11.6337C47.2688 11.5214 46.9671 11.4491 46.8241 11.4169C46.6811 11.3687 46.3952 11.2805 45.9662 11.152C45.553 11.0074 45.2594 10.887 45.0845 10.7907C44.9257 10.6943 44.6951 10.5498 44.3934 10.3571C44.0917 10.1485 43.8772 9.94764 43.75 9.75495C43.6228 9.54632 43.5036 9.28916 43.3925 8.98419C43.2814 8.66291 43.2257 8.32571 43.2257 7.97256C43.2257 6.99318 43.607 6.17424 44.3696 5.51576C45.1641 4.85728 46.1411 4.52822 47.3007 4.52822C48.2539 4.52822 49.096 4.745 49.8267 5.17856C50.5735 5.61211 51.1216 6.21427 51.471 6.98503L50.1604 7.75578C49.7156 6.63188 48.7624 6.06975 47.3007 6.06975C46.5858 6.06975 45.99 6.23835 45.5134 6.57556C45.0368 6.91277 44.7985 7.37856 44.7985 7.97256ZM60.2303 4.81726V6.35878H56.7988V13.6569C56.7988 14.3154 56.926 14.789 57.18 15.078C57.4341 15.3511 57.8154 15.4956 58.3239 15.5116C58.8324 15.5116 59.4678 15.4956 60.2303 15.4634V16.8604C58.5303 17.1172 57.2673 16.9968 56.4413 16.4991C55.6311 15.9851 55.226 15.038 55.226 13.6569V6.35878H52.7238V4.81726H55.226V1.9269L56.7988 1.44518V4.81726H60.2303ZM75.5533 4.52822C76.9035 4.52822 77.984 4.96178 78.7942 5.82888C79.6044 6.69599 80.0095 7.86807 80.0095 9.34548V16.8604H78.4367V9.34548C78.4367 8.31792 78.1746 7.51492 77.6503 6.93685C77.1261 6.35878 76.4192 6.06975 75.5294 6.06975C74.4967 6.06975 73.6864 6.41511 73.0987 7.10546C72.511 7.79581 72.217 8.82373 72.217 10.1885V16.8604H70.6442V9.34548C70.6442 8.30162 70.3978 7.49899 69.9055 6.93685C69.4131 6.35878 68.7297 6.06975 67.856 6.06975C66.8552 6.06975 66.0292 6.42289 65.3777 7.12955C64.7423 7.8362 64.4245 8.8556 64.4245 10.1885V16.8604H62.8517V4.81726H64.4245V6.57556C65.2824 5.21079 66.4977 4.52822 68.0705 4.52822C69.8021 4.52822 71.0097 5.25896 71.6927 6.72007C72.5506 5.25896 73.8375 4.52822 75.5533 4.52822ZM88.5566 4.52822C90.3358 4.52822 91.7575 5.16262 92.8222 6.43104C93.9184 7.68353 94.4665 9.16873 94.4665 10.887C94.4665 10.9674 94.4504 11.2161 94.4188 11.6337H83.9573C84.1161 12.838 84.6246 13.8014 85.4825 14.524C86.3403 15.2466 87.4127 15.6079 88.6996 15.6079C90.5107 15.6079 91.7895 14.9254 92.5363 13.5606L93.9184 14.3795C93.3941 15.2466 92.6712 15.9292 91.7498 16.4269C90.8443 16.9086 89.8196 17.1494 88.6757 17.1494C86.8008 17.1494 85.2757 16.5554 84.1003 15.3671C82.9246 14.1787 82.3369 12.6694 82.3369 10.8388C82.3369 9.02421 82.9165 7.52308 84.0765 6.3347C85.2361 5.13038 86.7293 4.52822 88.5566 4.52822ZM88.5566 6.06975C87.3174 6.06975 86.2766 6.43919 85.4348 7.17771C84.6084 7.91624 84.1161 8.88784 83.9573 10.0922H92.846C92.6712 8.80743 92.1865 7.8199 91.3924 7.12955C90.566 6.42289 89.6209 6.06975 88.5566 6.06975ZM102.545 4.52822C103.974 4.52822 105.11 4.97771 105.952 5.87706C106.794 6.7601 107.215 7.95663 107.215 9.46591V16.8604H105.643V9.46591C105.643 8.39018 105.357 7.55495 104.785 6.96094C104.229 6.36694 103.434 6.06975 102.402 6.06975C101.21 6.06975 100.265 6.44697 99.5658 7.2018C98.8824 7.95663 98.5411 9.07238 98.5411 10.5498V16.8604H96.9683V4.81726H98.5411V6.69599C99.4306 5.25081 100.765 4.52822 102.545 4.52822ZM116.572 4.81726V6.35878H113.14V13.6569C113.14 14.3154 113.267 14.789 113.521 15.078C113.775 15.3511 114.157 15.4956 114.665 15.5116C115.173 15.5116 115.809 15.4956 116.572 15.4634V16.8604C114.872 17.1172 113.609 16.9968 112.783 16.4991C111.972 15.9851 111.567 15.038 111.567 13.6569V6.35878H109.065V4.81726H111.567V1.9269L113.14 1.44518V4.81726H116.572Z" fill="white"/>
</svg>
